cg/layout-list.svg

<svg viewBox="0 0 24 24" fill="none" xmlns="http://www.w3.org/2000/svg" height="1em" width="1em">
  <path d="M9 7H7v2h2V7Zm-2 6v-2h2v2H7Zm0 2v2h2v-2H7Zm4 0v2h6v-2h-6Zm6-2v-2h-6v2h6Zm0-6v2h-6V7h6Z" fill="currentColor"/>
</svg>

<svg viewBox="0 0 24 24" fill="none" xmlns="http://www.w3.org/2000/svg" height="1em" width="1em">
  <path d="M9 7H7V9H9V7Z" fill="currentColor"/>
  <path d="M7 13V11H9V13H7Z" fill="currentColor"/>
  <path d="M7 15V17H9V15H7Z" fill="currentColor"/>
  <path d="M11 15V17H17V15H11Z" fill="currentColor"/>
  <path d="M17 13V11H11V13H17Z" fill="currentColor"/>
  <path d="M17 7V9H11V7H17Z" fill="currentColor"/>
</svg>
